assets/images/individual.svg

<svg width="30" height="42" viewBox="0 0 30 42" fill="none" xmlns="http://www.w3.org/2000/svg">
<path d="M21.4167 7.66669C21.4167 11.3486 18.4319 14.3334 14.7501 14.3334C11.0682 14.3334 8.08337 11.3486 8.08337 7.66669C8.08337 3.98482 11.0682 0.999999 14.7501 0.999999C18.4319 0.999999 21.4167 3.98482 21.4167 7.66669Z" stroke="#009640" stroke-width="2" stroke-miterlimit="10" stroke-linecap="round" stroke-linejoin="round"/>
<path d="M22.4117 18.3948C21.7757 18.2272 21.0887 18.3081 20.5073 18.6155C18.7871 19.5253 16.8315 20.0477 14.75 20.0477C12.6685 20.0477 10.7129 19.5253 8.99267 18.6155C8.41123 18.3081 7.72416 18.2272 7.08818 18.3948C3.8238 19.2554 1.41663 22.2272 1.41663 25.7619V37.1905C1.41663 39.2945 3.12224 41.0001 5.22621 41.0001H24.2738C26.3778 41.0001 28.0833 39.2945 28.0833 37.1905V25.7619C28.0833 22.2272 25.6762 19.2554 22.4117 18.3948Z" stroke="#009640" stroke-width="2" stroke-miterlimit="10" stroke-linecap="round" stroke-linejoin="round"/>
</svg>

<svg width="30" height="42" fill="none" xmlns="http://www.w3.org/2000/svg"><path d="M21.417 7.667a6.667 6.667 0 1 1-13.334 0 6.667 6.667 0 0 1 13.334 0ZM22.412 18.395a2.652 2.652 0 0 0-1.905.22 12.273 12.273 0 0 1-5.757 1.433c-2.082 0-4.037-.523-5.757-1.432a2.652 2.652 0 0 0-1.905-.221 7.622 7.622 0 0 0-5.671 7.367V37.19A3.81 3.81 0 0 0 5.227 41h19.047a3.81 3.81 0 0 0 3.81-3.81V25.762a7.621 7.621 0 0 0-5.672-7.367Z" stroke="#009640" stroke-width="2" stroke-miterlimit="10" stroke-linecap="round" stroke-linejoin="round"/></svg>
